svgs/light/warehouse-full.svg

<svg xmlns="http://www.w3.org/2000/svg" viewBox="0 0 640 512"><!-- Font Awesome Pro 6.0.0-alpha2 by @fontawesome - https://fontawesome.com License - https://fontawesome.com/license (Commercial License) --><path d="M610.625 118.375L338.625 3.75C326.75 -1.25 313.25 -1.25 301.375 3.75L29.375 118.375C11.625 125.75 0 143.25 0 162.5V496C0 504.801 7.201 512 16 512C24.801 512 32 504.801 32 496V162.5C32 156.125 35.875 150.25 41.75 147.75L313.75 33.125C317.75 31.5 322.25 31.5 326.25 33.125L598.25 147.75C604.125 150.25 608 156.125 608 162.5V496C608 504.801 615.201 512 624 512C632.801 512 640 504.801 640 496V162.5C640 143.25 628.375 125.75 610.625 118.375ZM512 352H352V256C352 238.326 337.674 224 320 224H128C110.326 224 96 238.326 96 256V480C96 497.672 110.326 512 128 512H512C529.674 512 544 497.672 544 480V384C544 366.326 529.674 352 512 352ZM320 480H128V384H320V480ZM320 352H128V256H320V352ZM512 480H352V384H512V480Z"/></svg>

<svg xmlns="http://www.w3.org/2000/svg" viewBox="0 0 640 512"><!--! Font Awesome Pro 6.0.0-alpha3 by @fontawesome - https://fontawesome.com License - https://fontawesome.com/license (Commercial License) --><path d="M610.6 118.4l-272.2-114.7c-11.88-5-25.12-5-37 0L29.38 118.4C11.62 125.8 0 143.3 0 162.5v333.5c0 8.801 7.201 16 16 16c8.801 0 16-7.199 16-16V162.5c0-6.375 3.875-12.25 9.75-14.75l272-114.6c4-1.625 8.5-1.625 12.5 0l272 114.6C604.1 150.3 608 156.1 608 162.5V496c0 8.801 7.201 16 16 16c8.801 0 16-7.199 16-16V162.5C640 143.3 628.4 125.8 610.6 118.4zM512 352h-160V256c0-17.67-14.33-32-32-32H128C110.3 224 96 238.3 96 256V480c0 17.67 14.33 32 32 32h384c17.67 0 32-14.33 32-32v-96C544 366.3 529.7 352 512 352zM320 480H128v-96h192V480zM320 352H128V256h192V352zM512 480h-160v-96h160V480z"/></svg>
